;FLAVOR:Marlin
;TIME:23641
;Filament used: 14.4325m
;Layer height: 0.1
;MINX:-71.376
;MINY:-45.801
;MINZ:0.3
;MAXX:71.375
;MAXY:45.8
;MAXZ:13
;Generated with Cura_SteamEngine 4.8.0
M140 S60
M105
M190 S60
M104 S210
M105
M109 S210
M82 ;absolute extrusion mode
G28 ;Home
G1 Z15.0 F6000 ;Move the platform down 15mm
;Prime the extruder
G92 E0
G1 F200 E3
G92 E0
G92 E0
G92 E0
G1 F1500 E-6.5
;LAYER_COUNT:128
;LAYER:0
M107
G0 F3600 X65.916 Y-45.801 Z0.3
;TYPE:SKIRT
G1 F1500 E0
G1 F2400 X66.633 Y-45.79 E0.03578
G1 X67.172 Y-45.735 E0.06281
G1 X67.837 Y-45.601 E0.09665
G1 X68.322 Y-45.456 E0.1219
G1 X69.159 Y-45.016 E0.16908
G1 X69.567 Y-44.736 E0.19377
G1 X70.183 Y-44.129 E0.23691
G1 X70.594 Y-43.588 E0.27081
G1 X70.87 Y-43.092 E0.29913
G1 X70.995 Y-42.819 E0.31411
G1 X71.168 Y-42.344 E0.33933
G1 X71.318 Y-41.555 E0.3794
G1 X71.361 Y-41.082 E0.40309
G1 X71.375 Y-40.225 E0.44586
G1 X71.375 Y40.318 E4.46416
G1 X71.366 Y40.959 E4.49614
G1 X71.337 Y41.343 E4.51536
G1 X71.263 Y41.89 E4.5429
G1 X71.156 Y42.384 E4.56811
G1 X70.863 Y43.1 E4.60671
G1 X70.577 Y43.606 E4.63571
G1 X70.133 Y44.185 E4.67211
G1 X69.913 Y44.419 E4.68813
G1 X69.539 Y44.759 E4.71335
G1 X69.014 Y45.105 E4.74472
G1 X68.831 Y45.214 E4.75535
G1 X68.377 Y45.436 E4.78056
G1 X67.877 Y45.588 E4.80663
G1 X67.144 Y45.735 E4.84393
G1 X66.538 Y45.793 E4.8743
G1 X65.973 Y45.8 E4.90249
G1 X-65.919 Y45.8 E11.48261
G1 X-66.585 Y45.791 E11.51584
G1 X-67.362 Y45.71 E11.55481
G1 X-67.516 Y45.686 E11.56259
G1 X-68.007 Y45.564 E11.58783
G1 X-68.305 Y45.447 E11.6038
G1 X-68.762 Y45.241 E11.62881
G1 X-69.205 Y44.998 E11.65402
G1 X-69.875 Y44.453 E11.69711
G1 X-70.228 Y44.091 E11.72233
G1 X-70.479 Y43.745 E11.74366
G1 X-70.75 Y43.314 E11.76906
G1 X-70.984 Y42.866 E11.79428
G1 X-71.168 Y42.291 E11.8244
G1 X-71.315 Y41.564 E11.8614
G1 X-71.366 Y41.04 E11.88767
G1 X-71.376 Y40.296 E11.92479
G1 X-71.375 Y-40.412 E15.95133
G1 X-71.364 Y-41.123 E15.9868
G1 X-71.31 Y-41.66 E16.01373
G1 X-71.194 Y-42.23 E16.04275
G1 X-71.047 Y-42.714 E16.06798
G1 X-70.785 Y-43.257 E16.09806
G1 X-70.654 Y-43.489 E16.11136
G1 X-70.372 Y-43.909 E16.13659
G1 X-69.823 Y-44.496 E16.17669
G1 X-69.443 Y-44.829 E16.2019
G1 X-68.668 Y-45.292 E16.24694
G1 X-68.207 Y-45.5 E16.27217
G1 X-67.325 Y-45.719 E16.31751
G1 X-66.696 Y-45.79 E16.34909
G1 X-65.961 Y-45.799 E16.38576
G1 X65.916 Y-45.801 E22.96513
G1 F1500 E16.46513
;MESH:weather-station-bottom.stl
G0 F3600 X65.915 Y-43.265
G0 X65.916 Y-42
G0 X66.931 Y-41.819
G0 X66.967 Y-41.912
;TYPE:WALL-INNER
G1 F1500 E22.96513
G1 F2400 X67.212 Y-41.763 E22.97944
G1 X67.401 Y-41.553 E22.99353
G1 X67.526 Y-41.285 E23.00829
G1 X67.575 Y-40.954 E23.02498
G1 X67.575 Y40.96 E27.11169
G1 X67.523 Y41.293 E27.1285
G1 X67.401 Y41.551 E27.14274
G1 X67.197 Y41.774 E27.15782
G1 X66.965 Y41.914 E27.17134
G1 X66.528 Y42 E27.19356
G1 X-66.536 Y42 E33.83215
G1 X-66.863 Y41.952 E33.84864
G1 X-67.129 Y41.825 E33.86334
G1 X-67.342 Y41.632 E33.87768
G1 X-67.49 Y41.387 E33.89196
G1 X-67.576 Y40.951 E33.91413
G1 X-67.575 Y-41.011 E38.00324
G1 X-67.509 Y-41.341 E38.02002
G1 X-67.37 Y-41.595 E38.03447
G1 X-67.164 Y-41.798 E38.0489
G1 X-66.898 Y-41.939 E38.06392
G1 X-66.598 Y-41.999 E38.07918
G1 X66.518 Y-42.001 E44.72037
G1 X66.967 Y-41.912 E44.7432
G0 F3600 X66.931 Y-41.819
G0 X61.275 Y-41.621
G0 X60.277 Y-41.522
G0 X59.315 Y-41.23
G0 X58.43 Y-40.758
G0 X57.654 Y-40.121
G0 X57.139 Y-39.493
G0 X56.488 Y-38.483
G0 X56.58 Y-38.445
G1 F2400 X56.291 Y-37.491 E44.79293
G1 X56.193 Y-36.5 E44.84262
G1 X56.291 Y-35.509 E44.8923
G1 X56.58 Y-34.555 E44.94203
G1 X57.05 Y-33.677 E44.99172
G1 X57.682 Y-32.907 E45.04141
G1 X58.452 Y-32.275 E45.09111
G1 X59.33 Y-31.806 E45.14077
G1 X60.284 Y-31.517 E45.1905
G1 X61.275 Y-31.419 E45.24019
G1 X62.266 Y-31.517 E45.28987
G1 X63.22 Y-31.806 E45.3396
G1 X64.098 Y-32.275 E45.38926
G1 X64.868 Y-32.907 E45.43896
G1 X65.5 Y-33.677 E45.48866
G1 X65.969 Y-34.555 E45.53832
G1 X66.258 Y-35.509 E45.58805
G1 X66.356 Y-36.5 E45.63773
G1 X66.258 Y-37.491 E45.68742
G1 X65.969 Y-38.445 E45.73715
G1 X65.5 Y-39.323 E45.78681
G1 X64.868 Y-40.093 E45.83651
G1 X64.098 Y-40.725 E45.88621
G1 X63.22 Y-41.194 E45.93587
G1 X62.266 Y-41.483 E45.9856
G1 X61.275 Y-41.581 E46.03528
G1 X60.284 Y-41.483 E46.08496
G1 X59.33 Y-41.194 E46.13469
G1 X58.452 Y-40.725 E46.18435
G1 X57.682 Y-40.093 E46.23405
G1 X57.05 Y-39.323 E46.28375
G1 X56.58 Y-38.445 E46.33344
G0 F3600 X56.488 Y-38.483
G0 X56.252 Y-37.498
G0 X56.172 Y-36.69
G0 X56.488 Y33.517
G0 X56.58 Y33.555
G1 F2400 X56.291 Y34.509 E46.38317
G1 X56.193 Y35.5 E46.43285
G1 X56.291 Y36.491 E46.48253
G1 X56.58 Y37.445 E46.53226
G1 X57.05 Y38.323 E46.58195
G1 X57.682 Y39.093 E46.63165
G1 X58.452 Y39.725 E46.68135
G1 X59.33 Y40.194 E46.73101
G1 X60.284 Y40.483 E46.78074
G1 X61.275 Y40.581 E46.83042
G1 X62.266 Y40.483 E46.8801
G1 X63.22 Y40.194 E46.92983
G1 X64.098 Y39.725 E46.97949
G1 X64.868 Y39.093 E47.02919
G1 X65.5 Y38.323 E47.07889
G1 X65.969 Y37.445 E47.12855
G1 X66.258 Y36.491 E47.17828
G1 X66.356 Y35.5 E47.22797
G1 X66.258 Y34.509 E47.27765
G1 X65.969 Y33.555 E47.32738
G1 X65.5 Y32.677 E47.37704
G1 X64.868 Y31.907 E47.42674
G1 X64.098 Y31.275 E47.47644
G1 X63.22 Y30.806 E47.5261
G1 X62.266 Y30.517 E47.57583
G1 X61.275 Y30.419 E47.62551
G1 X60.284 Y30.517 E47.6752
G1 X59.33 Y30.806 E47.72493
G1 X58.452 Y31.275 E47.77459
G1 X57.682 Y31.907 E47.82429
G1 X57.05 Y32.677 E47.87398
G1 X56.58 Y33.555 E47.92367
G0 F3600 X56.488 Y33.517
G0 X-61.225 Y30.379
G0 X-62.223 Y30.478
G0 X-63.185 Y30.77
G0 X-64.07 Y31.242
G0 X-64.846 Y31.879
G0 X-65.361 Y32.507
G0 X-66.012 Y33.517
G0 X-65.92 Y33.555
G1 F2400 X-66.209 Y34.509 E47.9734
G1 X-66.306 Y35.5 E48.02308
G1 X-66.209 Y36.491 E48.07276
G1 X-65.92 Y37.445 E48.12249
G1 X-65.45 Y38.323 E48.17217
G1 X-64.818 Y39.093 E48.22187
G1 X-64.048 Y39.725 E48.27157
G1 X-63.17 Y40.194 E48.32123
G1 X-62.216 Y40.483 E48.37096
G1 X-61.225 Y40.581 E48.42064
G1 X-60.235 Y40.483 E48.47028
G1 X-59.28 Y40.194 E48.52005
G1 X-58.402 Y39.725 E48.56972
G1 X-57.633 Y39.093 E48.61938
G1 X-57.001 Y38.323 E48.66907
G1 X-56.531 Y37.445 E48.71876
G1 X-56.242 Y36.491 E48.76849
G1 X-56.144 Y35.5 E48.81817
G1 X-56.242 Y34.509 E48.86786
G1 X-56.531 Y33.555 E48.91759
G1 X-57.001 Y32.677 E48.96727
G1 X-57.633 Y31.907 E49.01697
G1 X-58.402 Y31.275 E49.06663
G1 X-59.28 Y30.806 E49.11629
G1 X-60.235 Y30.517 E49.16607
G1 X-61.225 Y30.419 E49.2157
G1 X-62.216 Y30.517 E49.26538
G1 X-63.17 Y30.806 E49.31512
G1 X-64.048 Y31.275 E49.36478
G1 X-64.818 Y31.907 E49.41448
G1 X-65.45 Y32.677 E49.46417
G1 X-65.92 Y33.555 E49.51386
G0 F3600 X-66.012 Y33.517
G0 X-66.346 Y-36.5
G0 X-66.267 Y-37.308
G0 X-66.012 Y-38.483
G0 X-65.92 Y-38.445
G1 F2400 X-66.209 Y-37.491 E49.56359
G1 X-66.306 Y-36.5 E49.61327
G1 X-66.209 Y-35.509 E49.66294
G1 X-65.92 Y-34.555 E49.71268
G1 X-65.45 Y-33.677 E49.76236
G1 X-64.818 Y-32.907 E49.81206
G1 X-64.048 Y-32.275 E49.86176
G1 X-63.17 Y-31.806 E49.91142
G1 X-62.216 Y-31.517 E49.96115
G1 X-61.225 Y-31.419 E50.01083
G1 X-60.235 Y-31.517 E50.06047
G1 X-59.28 Y-31.806 E50.11024
G1 X-58.402 Y-32.275 E50.15991
G1 X-57.633 Y-32.907 E50.20957
G1 X-57.001 Y-33.677 E50.25926
G1 X-56.531 Y-34.555 E50.30895
G1 X-56.242 Y-35.509 E50.35868
G1 X-56.144 Y-36.5 E50.40836
G1 X-56.242 Y-37.491 E50.45804
G1 X-56.531 Y-38.445 E50.50778
G1 X-57.001 Y-39.323 E50.55746
G1 X-57.633 Y-40.093 E50.60716
G1 X-58.402 Y-40.725 E50.65682
G1 X-59.28 Y-41.194 E50.70648
G1 X-60.235 Y-41.483 E50.75626
G1 X-61.225 Y-41.581 E50.80589
G1 X-62.216 Y-41.483 E50.85557
G1 X-63.17 Y-41.194 E50.90531
G1 X-64.048 Y-40.725 E50.95497
G1 X-64.818 Y-40.093 E51.00466
G1 X-65.45 Y-39.323 E51.05436
G1 X-65.92 Y-38.445 E51.10405
G0 F3600 X-66.012 Y-38.483
G0 X-66.248 Y-37.498
G0 X-66.346 Y-36.5
G0 X-66.248 Y-35.502
G0 X-65.956 Y-34.54
G0 X-65.483 Y-33.655
G0 X-64.846 Y-32.879
G0 X-64.07 Y-32.242
G0 X-63.185 Y-31.77
G0 X-62.223 Y-31.478
G0 X-61.225 Y-31.379
G0 X-60.228 Y-31.478
G0 X-59.449 Y-31.713
G0 X-58.309 Y-32.223
G0 X-58.625 Y-32.609
;TYPE:WALL-OUTER
G1 F2400 X-57.917 Y-33.191 E51.14977
G1 X-57.335 Y-33.9 E51.19554
G1 X-56.902 Y-34.709 E51.24131
G1 X-56.636 Y-35.587 E51.28708
G1 X-56.546 Y-36.5 E51.33286
G1 X-56.636 Y-37.413 E51.37863
G1 X-56.902 Y-38.291 E51.4244
G1 X-57.335 Y-39.1 E51.47017
G1 X-57.917 Y-39.809 E51.51594
G1 X-58.625 Y-40.391 E51.56166
G1 X-59.434 Y-40.823 E51.60742
G1 X-60.313 Y-41.089 E51.65323
G1 X-61.225 Y-41.179 E51.69896
G1 X-62.138 Y-41.089 E51.74473
G1 X-63.016 Y-40.823 E51.7905
G1 X-63.825 Y-40.391 E51.83625
G1 X-64.534 Y-39.809 E51.88201
G1 X-65.116 Y-39.1 E51.92778
G1 X-65.549 Y-38.291 E51.97356
G1 X-65.815 Y-37.413 E52.01933
G1 X-65.904 Y-36.5 E52.06509
G1 X-65.815 Y-35.587 E52.11086
G1 X-65.549 Y-34.709 E52.15663
G1 X-65.116 Y-33.9 E52.20241
G1 X-64.534 Y-33.191 E52.24817
G1 X-63.825 Y-32.609 E52.29393
G1 X-63.016 Y-32.177 E52.33969
G1 X-62.138 Y-31.911 E52.38546
G1 X-61.225 Y-31.821 E52.43123
G1 X-60.313 Y-31.911 E52.47695
G1 X-59.434 Y-32.177 E52.52277
G1 X-58.625 Y-32.609 E52.56852
G0 F3600 X-58.471 Y-32.736
G0 X-58.155 Y-32.35
G0 X-56.104 Y35.5
G0 X-56.203 Y36.498
G0 X-56.495 Y37.46
G0 X-56.968 Y38.345
G0 X-57.483 Y38.973
G0 X-58.309 Y39.777
G0 X-58.625 Y39.391
G1 F2400 X-57.917 Y38.809 E52.61425
G1 X-57.335 Y38.1 E52.66001
G1 X-56.902 Y37.291 E52.70579
G1 X-56.636 Y36.413 E52.75156
G1 X-56.546 Y35.5 E52.79733
G1 X-56.636 Y34.587 E52.8431
G1 X-56.902 Y33.709 E52.88887
G1 X-57.335 Y32.9 E52.93465
G1 X-57.917 Y32.191 E52.98041
G1 X-58.625 Y31.609 E53.02614
G1 X-59.434 Y31.177 E53.07189
G1 X-60.313 Y30.911 E53.11771
G1 X-61.225 Y30.821 E53.16343
G1 X-62.138 Y30.911 E53.2092
G1 X-63.016 Y31.177 E53.25497
G1 X-63.825 Y31.609 E53.30073
G1 X-64.534 Y32.191 E53.34649
G1 X-65.116 Y32.9 E53.39225
G1 X-65.549 Y33.709 E53.43803
G1 X-65.815 Y34.587 E53.4838
G1 X-65.904 Y35.5 E53.52957
G1 X-65.815 Y36.413 E53.57533
G1 X-65.549 Y37.291 E53.6211
G1 X-65.116 Y38.1 E53.66688
G1 X-64.534 Y38.809 E53.71264
G1 X-63.825 Y39.391 E53.75841
G1 X-63.016 Y39.823 E53.80416
G1 X-62.138 Y40.089 E53.84993
G1 X-61.225 Y40.179 E53.8957
G1 X-60.313 Y40.089 E53.94142
G1 X-59.434 Y39.823 E53.98724
G1 X-58.625 Y39.391 E54.033
G0 F3600 X-58.471 Y39.264
G0 X-58.155 Y39.65
G0 X56.474 Y33.564
G0 X56.951 Y33.709
G1 F2400 X56.685 Y34.587 E54.07877
G1 X56.595 Y35.5 E54.12454
G1 X56.685 Y36.413 E54.17031
G1 X56.951 Y37.291 E54.21608
G1 X57.384 Y38.1 E54.26186
G1 X57.966 Y38.809 E54.30762
G1 X58.675 Y39.391 E54.35338
G1 X59.484 Y39.823 E54.39914
G1 X60.362 Y40.089 E54.44491
G1 X61.275 Y40.179 E54.49068
G1 X62.188 Y40.089 E54.53645
G1 X63.066 Y39.823 E54.58222
G1 X63.875 Y39.391 E54.62797
G1 X64.584 Y38.809 E54.67374
G1 X65.166 Y38.1 E54.7195
G1 X65.598 Y37.291 E54.76525
G1 X65.864 Y36.413 E54.81102
G1 X65.954 Y35.5 E54.85679
G1 X65.864 Y34.587 E54.90257
G1 X65.598 Y33.709 E54.94834
G1 X65.166 Y32.9 E54.99409
G1 X64.584 Y32.191 E55.03985
G1 X63.875 Y31.609 E55.08562
G1 X63.066 Y31.177 E55.13137
G1 X62.188 Y30.911 E55.17714
G1 X61.275 Y30.821 E55.22291
G1 X60.362 Y30.911 E55.26868
G1 X59.484 Y31.177 E55.31445
G1 X58.675 Y31.609 E55.36021
G1 X57.966 Y32.191 E55.40597
G1 X57.384 Y32.9 E55.45173
G1 X56.951 Y33.709 E55.49751
G0 F3600 X56.893 Y33.9
G0 X56.416 Y33.755
G0 X56.153 Y-36.5
G0 X56.233 Y-37.308
G0 X56.474 Y-38.436
G0 X56.951 Y-38.291
G1 F2400 X56.685 Y-37.413 E55.54328
G1 X56.595 Y-36.5 E55.58905
G1 X56.685 Y-35.587 E55.63482
G1 X56.951 Y-34.709 E55.68059
G1 X57.384 Y-33.9 E55.72637
G1 X57.966 Y-33.191 E55.77214
G1 X58.675 Y-32.609 E55.8179
G1 X59.484 Y-32.177 E55.86365
G1 X60.362 Y-31.911 E55.90942
G1 X61.275 Y-31.821 E55.95519
G1 X62.188 Y-31.911 E56.00097
G1 X63.066 Y-32.177 E56.04674
G1 X63.875 Y-32.609 E56.09249
G1 X64.584 Y-33.191 E56.13825
G1 X65.166 Y-33.9 E56.18402
G1 X65.598 Y-34.709 E56.22977
G1 X65.864 Y-35.587 E56.27554
G1 X65.954 Y-36.5 E56.32131
G1 X65.864 Y-37.413 E56.36708
G1 X65.598 Y-38.291 E56.41285
G1 X65.166 Y-39.1 E56.45861
G1 X64.584 Y-39.809 E56.50437
G1 X63.875 Y-40.391 E56.55013
G1 X63.066 Y-40.823 E56.59589
G1 X62.188 Y-41.089 E56.64166
G1 X61.275 Y-41.179 E56.68743
G1 X60.362 Y-41.089 E56.7332
G1 X59.484 Y-40.823 E56.77897
G1 X58.675 Y-40.391 E56.82473
G1 X57.966 Y-39.809 E56.87049
G1 X57.384 Y-39.1 E56.91625
G1 X56.951 Y-38.291 E56.96203
G0 F3600 X56.893 Y-38.1
G0 X56.416 Y-38.245
G0 X57.017 Y-39.345
G0 X57.654 Y-40.121
G0 X58.43 Y-40.758
G0 X59.315 Y-41.23
G0 X60.277 Y-41.522
G0 X66.931 Y-41.819
G0 X67.114 Y-42.29
G1 F2400 X67.47 Y-42.074 E56.98281
G1 X67.737 Y-41.778 E57.00269
G1 X67.914 Y-41.399 E57.02356
G1 X67.975 Y-40.985 E57.04444
G1 X67.975 Y40.989 E61.13414
G1 X67.909 Y41.414 E61.1556
G1 X67.737 Y41.778 E61.17568
G1 X67.455 Y42.085 E61.19648
G1 X67.112 Y42.292 E61.21647
G1 X66.566 Y42.4 E61.24423
G1 X-66.567 Y42.4 E67.88627
G1 X-66.98 Y42.339 E67.90709
G1 X-67.354 Y42.161 E67.92776
G1 X-67.655 Y41.889 E67.948
G1 X-67.868 Y41.534 E67.96865
G1 X-67.976 Y40.989 E67.99637
G1 X-67.975 Y-41.05 E72.08931
G1 X-67.889 Y-41.478 E72.11109
G1 X-67.692 Y-41.84 E72.13166
G1 X-67.403 Y-42.125 E72.15191
G1 X-67.036 Y-42.319 E72.17262
G1 X-66.636 Y-42.399 E72.19297
G1 X66.556 Y-42.401 E78.83794
G1 X67.114 Y-42.29 E78.86633
G0 F3600 X67.285 Y-42.187
G0 X66.823 Y-41.544
;TYPE:SKIN
G1 F2400 X67.073 Y-41.334 E78.88262
G1 X67.148 Y-41.173 E78.89148
G1 X67.185 Y-40.924 E78.90404
G1 X67.185 Y40.926 E82.98755
G1 X67.145 Y41.179 E83.00033
G1 X67.074 Y41.331 E83.0087
G1 X66.822 Y41.546 E83.02522
G1 X66.493 Y41.61 E83.04195
G1 X-66.507 Y41.61 E89.67734
G1 X-66.748 Y41.574 E89.6895
G1 X-66.909 Y41.498 E89.69838
G1 X-67.122 Y41.243 E89.71496
G1 X-67.186 Y40.913 E89.73173
G1 X-67.185 Y-40.975 E93.81714
G1 X-67.139 Y-41.206 E93.82889
G1 X-67.056 Y-41.358 E93.83753
G1 X-66.933 Y-41.478 E93.8461
G1 X-66.762 Y-41.569 E93.85577
G1 X-66.562 Y-41.609 E93.86594
G1 X-63.145 Y-41.609 E94.03642
G1 X-63.32 Y-41.556 E94.04554
G1 X-64.266 Y-41.051 E94.09904
G1 X-65.095 Y-40.37 E94.15256
G1 X-65.776 Y-39.541 E94.20609
G1 X-66.282 Y-38.595 E94.25961
G1 X-66.593 Y-37.567 E94.31319
G1 X-66.698 Y-36.5 E94.36668
G1 X-66.593 Y-35.433 E94.42017
G1 X-66.282 Y-34.405 E94.47376
G1 X-65.776 Y-33.459 E94.52728
G1 X-65.095 Y-32.63 E94.58081
G1 X-64.266 Y-31.949 E94.63433
G1 X-63.32 Y-31.444 E94.68783
G1 X-62.292 Y-31.133 E94.74141
G1 X-61.225 Y-31.027 E94.79491
G1 X-60.159 Y-31.133 E94.84835
G1 X-59.13 Y-31.444 E94.90198
G1 X-58.184 Y-31.949 E94.95548
G1 X-57.356 Y-32.63 E95.00897
G1 X-56.675 Y-33.459 E95.06249
G1 X-56.169 Y-34.405 E95.11602
G1 X-55.858 Y-35.433 E95.1696
G1 X-55.752 Y-36.5 E95.22309
G1 X-55.858 Y-37.567 E95.27659
G1 X-56.169 Y-38.595 E95.33017
G1 X-56.675 Y-39.541 E95.3837
G1 X-57.356 Y-40.37 E95.43722
G1 X-58.184 Y-41.051 E95.49071
G1 X-59.13 Y-41.556 E95.54421
G1 X-59.306 Y-41.609 E95.55338
G1 X59.361 Y-41.611 E101.4737
G1 X59.18 Y-41.556 E101.48314
G1 X58.234 Y-41.051 E101.53663
G1 X57.405 Y-40.37 E101.59016
G1 X56.724 Y-39.541 E101.64368
G1 X56.218 Y-38.595 E101.69721
G1 X55.907 Y-37.567 E101.75079
G1 X55.801 Y-36.5 E101.80429
G1 X55.907 Y-35.433 E101.85778
G1 X56.218 Y-34.405 E101.91136
G1 X56.724 Y-33.459 E101.96489
G1 X57.405 Y-32.63 E102.01841
G1 X58.234 Y-31.949 E102.07194
G1 X59.18 Y-31.444 E102.12544
G1 X60.208 Y-31.133 E102.17902
G1 X61.275 Y-31.027 E102.23251
G1 X62.342 Y-31.133 E102.28601
G1 X63.37 Y-31.444 E102.33959
G1 X64.316 Y-31.949 E102.39309
G1 X65.145 Y-32.63 E102.44662
G1 X65.826 Y-33.459 E102.50014
G1 X66.331 Y-34.405 E102.55364
G1 X66.642 Y-35.433 E102.60722
G1 X66.748 Y-36.5 E102.66072
G1 X66.642 Y-37.567 E102.71421
G1 X66.331 Y-38.595 E102.76779
G1 X65.826 Y-39.541 E102.82129
G1 X65.145 Y-40.37 E102.87482
G1 X64.316 Y-41.051 E102.92834
G1 X63.37 Y-41.556 E102.98184
G1 X63.188 Y-41.611 E102.99133
G1 X66.482 Y-41.611 E103.15567
G1 X66.823 Y-41.544 E103.17301
G0 F3600 X61.275 Y30.027
G1 F2400 X60.208 Y30.133 E103.2265
G1 X59.18 Y30.444 E103.28008
G1 X58.234 Y30.949 E103.33358
G1 X57.405 Y31.63 E103.38711
G1 X56.724 Y32.459 E103.44063
G1 X56.218 Y33.405 E103.49416
G1 X55.907 Y34.433 E103.54774
G1 X55.801 Y35.5 E103.60123
G1 X55.907 Y36.567 E103.65473
G1 X56.218 Y37.595 E103.70831
G1 X56.724 Y38.541 E103.76183
G1 X57.405 Y39.37 E103.81536
