;FLAVOR:Marlin
;TIME:10875
;Filament used: 10.1641m
;Layer height: 0.1
;MINX:-76.257
;MINY:-50.7
;MINZ:0.3
;MAXX:76.257
;MAXY:50.7
;MAXZ:5
;Generated with Cura_SteamEngine 4.8.0
M140 S60
M105
M190 S60
M104 S200
M105
M109 S200
M82 ;absolute extrusion mode
G28 ;Home
G1 Z15.0 F6000 ;Move the platform down 15mm
;Prime the extruder
G92 E0
G1 F200 E3
G92 E0
G92 E0
G92 E0
G1 F1500 E-6.5
;LAYER_COUNT:48
;LAYER:0
M107
G0 F3600 X76.256 Y1.02 Z0.3
;TYPE:SKIRT
G1 F1500 E0
G1 F3000 X75.905 Y19.717 E0.93296
G1 X75.834 Y21.613 E1.02762
G1 X74.765 Y40.579 E1.97534
G1 X74.727 Y41.084 E2.0006
G1 X74.639 Y41.918 E2.04244
G1 X74.595 Y42.208 E2.05708
G1 X74.466 Y42.847 E2.0896
G1 X74.404 Y43.085 E2.10187
G1 X74.207 Y43.743 E2.13614
G1 X74.101 Y44.04 E2.15187
G1 X73.847 Y44.659 E2.18525
G1 X73.719 Y44.935 E2.20043
G1 X73.4 Y45.541 E2.2346
G1 X73.242 Y45.808 E2.25008
G1 X72.864 Y46.383 E2.28441
G1 X72.685 Y46.629 E2.29958
G1 X72.285 Y47.127 E2.33145
G1 X72.079 Y47.359 E2.34693
G1 X71.575 Y47.875 E2.38292
G1 X71.344 Y48.09 E2.39866
G1 X70.864 Y48.493 E2.42993
G1 X70.623 Y48.676 E2.44503
G1 X70.039 Y49.079 E2.48043
G1 X69.774 Y49.244 E2.496
G1 X69.104 Y49.614 E2.53418
G1 X68.595 Y49.853 E2.56224
G1 X67.994 Y50.085 E2.59438
G1 X67.387 Y50.28 E2.62619
G1 X67.102 Y50.357 E2.64092
G1 X66.409 Y50.511 E2.67633
G1 X66.098 Y50.564 E2.69207
G1 X65.402 Y50.648 E2.72705
G1 X64.689 Y50.691 E2.76268
G1 X63.924 Y50.7 E2.80085
G1 X-63.917 Y50.7 E9.17887
G1 X-64.805 Y50.687 E9.22317
G1 X-65.467 Y50.643 E9.25627
G1 X-66.173 Y50.554 E9.29177
G1 X-66.48 Y50.5 E9.30733
G1 X-67.12 Y50.355 E9.34006
G1 X-67.408 Y50.275 E9.35498
G1 X-68.044 Y50.067 E9.38836
G1 X-68.339 Y49.954 E9.40412
G1 X-68.961 Y49.68 E9.43803
G1 X-69.236 Y49.543 E9.45336
G1 X-69.839 Y49.205 E9.48785
G1 X-70.102 Y49.041 E9.50331
G1 X-70.628 Y48.675 E9.53528
G1 X-70.868 Y48.49 E9.5504
G1 X-71.391 Y48.047 E9.58459
G1 X-71.624 Y47.828 E9.60055
G1 X-72.108 Y47.327 E9.6353
G1 X-72.307 Y47.102 E9.65029
G1 X-72.717 Y46.589 E9.68305
G1 X-72.899 Y46.337 E9.69856
G1 X-73.257 Y45.787 E9.7313
G1 X-73.411 Y45.523 E9.74655
G1 X-73.736 Y44.901 E9.78156
G1 X-73.864 Y44.625 E9.79674
G1 X-74.107 Y44.028 E9.82889
G1 X-74.214 Y43.723 E9.84502
G1 X-74.417 Y43.031 E9.881
G1 X-74.487 Y42.741 E9.89588
G1 X-74.609 Y42.114 E9.92775
G1 X-74.672 Y41.663 E9.95047
G1 X-74.787 Y40.178 E10.02478
G1 X-75.837 Y21.544 E10.95591
G1 X-75.906 Y19.665 E11.04971
G1 X-76.257 Y0.96 E11.98307
G1 X-76.256 Y-1.02 E12.08186
G1 X-75.905 Y-19.717 E13.01482
G1 X-75.834 Y-21.613 E13.10948
G1 X-74.765 Y-40.579 E14.0572
G1 X-74.725 Y-41.123 E14.08441
G1 X-74.648 Y-41.861 E14.12143
G1 X-74.603 Y-42.157 E14.13636
G1 X-74.473 Y-42.807 E14.16944
G1 X-74.4 Y-43.1 E14.1845
G1 X-74.207 Y-43.742 E14.21795
G1 X-74.104 Y-44.033 E14.23335
G1 X-73.849 Y-44.656 E14.26693
G1 X-73.718 Y-44.935 E14.28231
G1 X-73.391 Y-45.556 E14.31732
G1 X-73.236 Y-45.82 E14.3326
G1 X-72.887 Y-46.352 E14.36434
G1 X-72.704 Y-46.603 E14.37984
G1 X-72.263 Y-47.151 E14.41493
G1 X-72.058 Y-47.382 E14.43034
G1 X-71.583 Y-47.868 E14.46424
G1 X-71.354 Y-48.081 E14.47985
G1 X-70.865 Y-48.492 E14.51171
G1 X-70.622 Y-48.677 E14.52695
G1 X-70.027 Y-49.087 E14.563
G1 X-69.763 Y-49.251 E14.57851
G1 X-69.202 Y-49.562 E14.61051
G1 X-68.61 Y-49.846 E14.64327
G1 X-67.978 Y-50.09 E14.67706
G1 X-67.39 Y-50.279 E14.70788
G1 X-67.099 Y-50.358 E14.72292
G1 X-66.404 Y-50.511 E14.75843
G1 X-66.101 Y-50.563 E14.77376
G1 X-65.392 Y-50.649 E14.80939
G1 X-64.661 Y-50.693 E14.84593
G1 X-63.998 Y-50.7 E14.87901
G1 X63.917 Y-50.7 E21.26071
G1 X64.802 Y-50.687 E21.30487
G1 X65.469 Y-50.643 E21.33822
G1 X66.166 Y-50.555 E21.37327
G1 X66.473 Y-50.501 E21.38882
G1 X67.117 Y-50.355 E21.42177
G1 X67.404 Y-50.275 E21.43663
G1 X68.061 Y-50.06 E21.47112
G1 X68.353 Y-49.949 E21.4867
G1 X68.938 Y-49.692 E21.51858
G1 X69.217 Y-49.553 E21.53413
G1 X69.848 Y-49.199 E21.57023
G1 X70.108 Y-49.036 E21.58554
G1 X70.626 Y-48.676 E21.61701
G1 X70.867 Y-48.49 E21.6322
G1 X71.375 Y-48.06 E21.6654
G1 X71.609 Y-47.842 E21.68136
G1 X72.131 Y-47.302 E21.71883
G1 X72.328 Y-47.078 E21.73371
G1 X72.689 Y-46.627 E21.76253
G1 X72.866 Y-46.383 E21.77757
G1 X73.25 Y-45.798 E21.81248
G1 X73.413 Y-45.52 E21.82856
G1 X73.736 Y-44.9 E21.86344
G1 X73.861 Y-44.632 E21.87819
G1 X74.106 Y-44.032 E21.91053
G1 X74.214 Y-43.723 E21.92686
G1 X74.417 Y-43.031 E21.96284
G1 X74.487 Y-42.741 E21.97772
G1 X74.609 Y-42.114 E22.00959
G1 X74.672 Y-41.664 E22.03226
G1 X74.787 Y-40.178 E22.10662
G1 X75.837 Y-21.544 E23.03774
G1 X75.906 Y-19.665 E23.13155
G1 X76.257 Y-.96 E24.06491
G1 X76.256 Y1.02 E24.16369
G1 F1500 E17.66369
;MESH:weather-station-lid.stl
G0 F3600 X73.739 Y0.011
G0 X72.455 Y-0.012
G0 X65.138 Y-46.47
;TYPE:WALL-INNER
G1 F1500 E24.16369
G1 F3000 X65.721 Y-46.385 E24.19309
G1 X66.259 Y-46.252 E24.22074
G1 X66.814 Y-46.057 E24.25009
G1 X67.332 Y-45.818 E24.27855
G1 X67.843 Y-45.516 E24.30816
G1 X68.296 Y-45.189 E24.33603
G1 X68.742 Y-44.796 E24.36569
G1 X69.129 Y-44.38 E24.39404
G1 X69.488 Y-43.911 E24.4235
G1 X69.795 Y-43.42 E24.45239
G1 X70.045 Y-42.917 E24.48042
G1 X70.255 Y-42.365 E24.50988
G1 X70.408 Y-41.806 E24.5388
G1 X70.51 Y-41.228 E24.56808
G1 X70.539 Y-40.928 E24.58312
G1 X71.69 Y-20.507 E25.60354
G1 X72.075 Y-0.02 E26.62582
G1 X71.69 Y20.5 E27.64975
G1 X70.539 Y40.929 E28.67057
G1 X70.469 Y41.493 E28.69893
G1 X70.347 Y42.058 E28.72776
G1 X70.169 Y42.612 E28.75679
G1 X69.934 Y43.151 E28.78613
G1 X69.667 Y43.637 E28.81379
G1 X69.325 Y44.135 E28.84393
G1 X68.958 Y44.573 E28.87244
G1 X68.548 Y44.975 E28.90109
G1 X68.092 Y45.345 E28.93039
G1 X67.615 Y45.658 E28.95885
G1 X67.096 Y45.933 E28.98815
G1 X66.561 Y46.152 E29.01699
G1 X66.008 Y46.319 E29.04581
G1 X65.445 Y46.432 E29.07446
G1 X64.858 Y46.49 E29.10389
G1 X64.39 Y46.5 E29.12724
G1 X-64.527 Y46.5 E35.55894
G1 X-65.139 Y46.47 E35.58951
G1 X-65.72 Y46.385 E35.6188
G1 X-66.262 Y46.251 E35.64666
G1 X-66.812 Y46.058 E35.67574
G1 X-67.332 Y45.818 E35.70431
G1 X-67.843 Y45.516 E35.73392
G1 X-68.296 Y45.189 E35.7618
G1 X-68.748 Y44.791 E35.79184
G1 X-69.129 Y44.381 E35.81977
G1 X-69.485 Y43.917 E35.84895
G1 X-69.795 Y43.421 E35.87813
G1 X-70.045 Y42.917 E35.90619
G1 X-70.255 Y42.365 E35.93566
G1 X-70.408 Y41.806 E35.96457
G1 X-70.511 Y41.222 E35.99416
G1 X-70.539 Y40.929 E36.00884
G1 X-71.69 Y20.5 E37.02967
G1 X-72.075 Y0.02 E38.0516
G1 X-71.69 Y-20.5 E39.07553
G1 X-70.541 Y-40.912 E40.0955
G1 X-70.47 Y-41.496 E40.12485
G1 X-70.344 Y-42.066 E40.15397
G1 X-70.17 Y-42.61 E40.18247
G1 X-69.935 Y-43.151 E40.21189
G1 X-69.661 Y-43.647 E40.24016
G1 X-69.327 Y-44.134 E40.26963
G1 X-68.963 Y-44.568 E40.29789
G1 X-68.548 Y-44.975 E40.32688
G1 X-68.092 Y-45.345 E40.35618
G1 X-67.611 Y-45.661 E40.38489
G1 X-67.094 Y-45.935 E40.41409
G1 X-66.569 Y-46.15 E40.44239
G1 X-66.008 Y-46.319 E40.47162
G1 X-65.445 Y-46.432 E40.50027
G1 X-64.859 Y-46.49 E40.52965
G1 X-64.39 Y-46.5 E40.55305
G1 X64.527 Y-46.5 E46.98475
G1 X65.138 Y-46.47 E47.01527
G0 F3600 X-49.751 Y-21.25
G1 F3000 X-49.751 Y21.25 E49.1356
G1 X49.749 Y21.25 E54.09967
G1 X49.749 Y-21.25 E56.22001
G1 X-49.751 Y-21.25 E61.18408
G0 F3600 X-49.351 Y-20.85
G1 F3000 X-49.351 Y20.85 E63.2645
G1 X49.349 Y20.85 E68.18867
G1 X49.349 Y-20.85 E70.26909
G1 X-49.351 Y-20.85 E75.19325
G0 F3600 X-49.421 Y-20.92
G0 X65.165 Y-46.77
G0 X65.174 Y-46.869
G1 F3000 X65.79 Y-46.779 E75.22431
G1 X66.376 Y-46.635 E75.25442
G1 X66.967 Y-46.427 E75.28567
G1 X67.521 Y-46.171 E75.31612
G1 X68.057 Y-45.855 E75.34716
G1 X68.551 Y-45.498 E75.37757
G1 X69.018 Y-45.086 E75.40864
G1 X69.436 Y-44.636 E75.43928
G1 X69.816 Y-44.141 E75.47042
G1 X70.144 Y-43.616 E75.5013
G1 X70.413 Y-43.075 E75.53144
G1 X70.636 Y-42.489 E75.56273
G1 X70.799 Y-41.892 E75.5936
G1 X70.906 Y-41.286 E75.6243
G1 X70.937 Y-40.967 E75.64029
G1 X72.09 Y-20.515 E76.66227
G1 X72.475 Y-0.012 E77.68534
G1 X72.09 Y20.508 E78.70927
G1 X70.937 Y40.973 E79.73189
G1 X70.864 Y41.559 E79.76136
G1 X70.733 Y42.166 E79.79234
G1 X70.545 Y42.75 E79.82294
G1 X70.295 Y43.325 E79.85423
G1 X70.003 Y43.855 E79.88441
G1 X69.645 Y44.376 E79.91595
G1 X69.258 Y44.838 E79.94602
G1 X68.809 Y45.279 E79.97742
G1 X68.331 Y45.666 E80.0081
G1 X67.815 Y46.005 E80.0389
G1 X67.269 Y46.294 E80.06972
G1 X66.696 Y46.529 E80.10062
G1 X66.105 Y46.707 E80.13142
G1 X65.503 Y46.828 E80.16205
G1 X64.881 Y46.89 E80.19324
G1 X64.398 Y46.9 E80.21734
G1 X-64.547 Y46.9 E86.65043
G1 X-65.175 Y46.869 E86.6818
G1 X-65.789 Y46.779 E86.71276
G1 X-66.379 Y46.634 E86.74307
G1 X-66.965 Y46.428 E86.77406
G1 X-67.521 Y46.171 E86.80462
G1 X-68.057 Y45.855 E86.83566
G1 X-68.551 Y45.498 E86.86607
G1 X-69.024 Y45.081 E86.89753
G1 X-69.436 Y44.638 E86.92771
G1 X-69.813 Y44.147 E86.95859
G1 X-70.144 Y43.616 E86.98981
G1 X-70.413 Y43.075 E87.01995
G1 X-70.636 Y42.489 E87.05124
G1 X-70.799 Y41.892 E87.08211
G1 X-70.907 Y41.28 E87.11312
G1 X-70.937 Y40.967 E87.1288
G1 X-72.09 Y20.508 E88.15113
G1 X-72.475 Y0.012 E89.17386
G1 X-72.09 Y-20.508 E90.19778
G1 X-70.939 Y-40.952 E91.21935
G1 X-70.864 Y-41.568 E91.25031
G1 X-70.732 Y-42.167 E91.28091
G1 X-70.545 Y-42.75 E91.31146
G1 X-70.295 Y-43.325 E91.34274
G1 X-70 Y-43.86 E91.37322
G1 X-69.648 Y-44.373 E91.40426
G1 X-69.257 Y-44.839 E91.43461
G1 X-68.809 Y-45.279 E91.46594
G1 X-68.331 Y-45.666 E91.49662
G1 X-67.815 Y-46.005 E91.52742
G1 X-67.267 Y-46.296 E91.55838
G1 X-66.7 Y-46.528 E91.58894
G1 X-66.105 Y-46.707 E91.61994
G1 X-65.503 Y-46.828 E91.65057
G1 X-64.882 Y-46.89 E91.68171
G1 X-64.398 Y-46.9 E91.70586
G1 X64.547 Y-46.9 E98.13895
G1 X65.174 Y-46.869 E98.17027
G0 F3600 X65.21 Y-47.268
;TYPE:WALL-OUTER
G1 F3000 X65.861 Y-47.173 E98.2031
G1 X66.491 Y-47.018 E98.23546
G1 X67.12 Y-46.797 E98.26873
G1 X67.71 Y-46.524 E98.30116
G1 X68.271 Y-46.194 E98.33363
G1 X68.806 Y-45.807 E98.36657
G1 X69.294 Y-45.376 E98.39906
G1 X69.743 Y-44.893 E98.43196
G1 X70.144 Y-44.371 E98.4648
G1 X70.493 Y-43.811 E98.49772
G1 X70.782 Y-43.23 E98.53009
G1 X71.016 Y-42.617 E98.56283
G1 X71.19 Y-41.98 E98.59577
G1 X71.302 Y-41.341 E98.62814
G1 X71.335 Y-41.006 E98.64493
G1 X72.49 Y-20.523 E99.66845
G1 X72.875 Y-0.004 E100.69233
G1 X72.49 Y20.516 E101.71626
G1 X71.335 Y41.014 E102.74053
G1 X71.259 Y41.628 E102.7714
G1 X71.119 Y42.272 E102.80428
G1 X70.921 Y42.887 E102.83651
G1 X70.656 Y43.499 E102.86978
G1 X70.339 Y44.073 E102.9025
G1 X69.965 Y44.617 E102.93543
G1 X69.553 Y45.109 E102.96745
G1 X69.075 Y45.578 E103.00086
G1 X68.57 Y45.987 E103.03328
G1 X68.023 Y46.347 E103.06595
G1 X67.434 Y46.659 E103.0992
G1 X66.828 Y46.907 E103.13187
G1 X66.205 Y47.095 E103.16433
G1 X65.561 Y47.224 E103.1971
G1 X64.904 Y47.29 E103.23005
G1 X64.406 Y47.3 E103.2549
G1 X-64.567 Y47.3 E109.68938
G1 X-65.211 Y47.268 E109.72155
G1 X-65.861 Y47.173 E109.75433
G1 X-66.491 Y47.018 E109.78669
G1 X-67.121 Y46.797 E109.82
G1 X-67.71 Y46.524 E109.85239
G1 X-68.271 Y46.194 E109.88486
G1 X-68.806 Y45.807 E109.91781
G1 X-69.3 Y45.371 E109.95068
G1 X-69.739 Y44.899 E109.98284
G1 X-70.144 Y44.371 E110.01604
G1 X-70.493 Y43.811 E110.04896
G1 X-70.782 Y43.23 E110.08133
G1 X-71.016 Y42.617 E110.11407
G1 X-71.19 Y41.98 E110.14701
G1 X-71.303 Y41.335 E110.17968
G1 X-71.335 Y41.006 E110.19617
G1 X-72.49 Y20.516 E111.22004
G1 X-72.875 Y0.004 E112.24357
G1 X-72.49 Y-20.516 E113.2675
G1 X-71.336 Y-41.001 E114.29112
G1 X-71.258 Y-41.639 E114.32319
G1 X-71.119 Y-42.272 E114.35552
G1 X-70.921 Y-42.887 E114.38775
G1 X-70.656 Y-43.499 E114.42103
G1 X-70.339 Y-44.073 E114.45374
G1 X-69.969 Y-44.612 E114.48636
G1 X-69.546 Y-45.116 E114.51918
G1 X-69.075 Y-45.578 E114.5521
G1 X-68.57 Y-45.987 E114.58452
G1 X-68.023 Y-46.347 E114.61719
G1 X-67.435 Y-46.659 E114.6504
G1 X-66.828 Y-46.907 E114.68311
G1 X-66.205 Y-47.095 E114.71558
G1 X-65.561 Y-47.224 E114.74835
G1 X-64.905 Y-47.29 E114.78124
G1 X-64.406 Y-47.3 E114.80614
G1 X64.567 Y-47.3 E121.24063
G1 X65.21 Y-47.268 E121.27275
G0 F3600 X65.408 Y-47.24
G0 X65.336 Y-46.745
G0 X-48.951 Y-20.95
G0 X-48.951 Y-20.45
G1 F3000 X-48.951 Y20.45 E123.31326
G1 X48.949 Y20.45 E128.19751
G1 X48.949 Y-20.45 E130.23802
G1 X-48.951 Y-20.45 E135.12227
G0 F3600 X-48.951 Y-20.25
G0 X-49.451 Y-20.25
G0 X-50.141 Y-21.64
;TYPE:SKIN
G1 F3000 X-50.141 Y21.64 E137.28152
G1 X50.139 Y21.64 E142.28451
G1 X50.139 Y-21.64 E144.44375
G1 X-50.141 Y-21.64 E149.44674
G0 F3600 X-71.3 Y-20.478
G1 F3000 X-70.153 Y-40.865 E150.46546
G1 X-70.083 Y-41.439 E150.49431
G1 X-69.965 Y-41.974 E150.52164
G1 X-69.805 Y-42.473 E150.54779
G1 X-69.586 Y-42.976 E150.57516
G1 X-69.333 Y-43.435 E150.60131
G1 X-69.014 Y-43.899 E150.6294
G1 X-68.676 Y-44.303 E150.65568
G1 X-68.288 Y-44.684 E150.68281
G1 X-67.857 Y-45.033 E150.71048
G1 X-67.417 Y-45.322 E150.73674
G1 X-66.925 Y-45.582 E150.7645
G1 X-66.434 Y-45.784 E150.79099
G1 X-65.913 Y-45.94 E150.81812
G1 X-65.39 Y-46.046 E150.84475
G1 X-64.837 Y-46.1 E150.87247
G1 X-64.382 Y-46.11 E150.89517
G1 X64.508 Y-46.11 E157.32552
G1 X65.105 Y-46.08 E157.35534
G1 X65.651 Y-46.001 E157.38287
G1 X66.143 Y-45.879 E157.40816
G1 X66.656 Y-45.699 E157.43528
G1 X67.16 Y-45.467 E157.46296
G1 X67.633 Y-45.188 E157.49036
G1 X68.045 Y-44.89 E157.51572
G1 X68.479 Y-44.508 E157.54457
G1 X68.819 Y-44.142 E157.56949
G1 X69.17 Y-43.685 E157.59824
G1 X69.456 Y-43.225 E157.62526
G1 X69.683 Y-42.77 E157.65063
G1 X69.886 Y-42.236 E157.67913
G1 X70.027 Y-41.721 E157.70577
G1 X70.125 Y-41.167 E157.73384
G1 X70.149 Y-40.906 E157.74692
G1 X71.3 Y-20.499 E158.76665
G1 X71.685 Y-0.028 E159.78813
G1 X71.3 Y20.478 E160.81136
G1 X70.15 Y40.895 E161.83158
G1 X70.084 Y41.431 E161.85852
G1 X69.97 Y41.959 E161.88547
G1 X69.804 Y42.475 E161.91251
G1 X69.587 Y42.973 E161.93962
G1 X69.339 Y43.426 E161.96538
G1 X69.009 Y43.905 E161.9944
G1 X68.678 Y44.301 E162.02015
G1 X68.288 Y44.684 E162.04742
G1 X67.859 Y45.031 E162.07495
G1 X67.421 Y45.319 E162.1011
G1 X66.927 Y45.58 E162.12898
G1 X66.426 Y45.786 E162.156
G1 X65.913 Y45.94 E162.18272
G1 X65.39 Y46.046 E162.20935
G1 X64.836 Y46.1 E162.23712
G1 X64.382 Y46.11 E162.25977
G1 X-64.508 Y46.11 E168.69012
G1 X-65.106 Y46.08 E168.71999
G1 X-65.65 Y46.001 E168.74742
G1 X-66.146 Y45.878 E168.77291
G1 X-66.654 Y45.7 E168.79977
G1 X-67.16 Y45.467 E168.82756
G1 X-67.627 Y45.191 E168.85462
G1 X-68.059 Y44.878 E168.88124
G1 X-68.475 Y44.513 E168.90885
G1 X-68.824 Y44.136 E168.93448
G1 X-69.17 Y43.686 E168.9628
G1 X-69.453 Y43.231 E168.98953
G1 X-69.684 Y42.766 E169.01544
G1 X-69.886 Y42.236 E169.04373
G1 X-70.027 Y41.721 E169.07037
G1 X-70.126 Y41.161 E169.09874
G1 X-70.149 Y40.907 E169.11147
G1 X-71.3 Y20.478 E170.13229
G1 X-71.685 Y0.028 E171.15273
G1 X-71.3 Y-20.478 E172.17596
G0 F3600 X-67.539 Y45.032
G1 F3000 X-69.075 Y43.496 E172.28433
G1 X-69.145 Y43.426
G0 F3600 X-69.644 Y42.361
G1 F3000 X-66.412 Y45.593 E172.51236
G1 X-66.342 Y45.663
G0 F3600 X-65.615 Y45.824
G1 F3000 X-69.871 Y41.568 E172.81265
G0 F3600 X-69.968 Y40.906
G1 F3000 X-64.968 Y45.905 E173.16539
G0 F3600 X-64.378 Y45.93
G1 F3000 X-70.002 Y40.305 E173.56223
G0 F3600 X-70.036 Y39.706
G1 F3000 X-63.812 Y45.93 E174.00136
G0 F3600 X-63.247 Y45.93
G1 F3000 X-70.07 Y39.107 E174.48276
G0 F3600 X-70.103 Y38.507
G1 F3000 X-62.681 Y45.93 E175.00646
G0 F3600 X-62.115 Y45.93
G1 F3000 X-70.137 Y37.908 E175.57246
G0 F3600 X-70.171 Y37.309
G1 F3000 X-61.55 Y45.93 E176.18072
G0 F3600 X-60.984 Y45.93
G1 F3000 X-70.205 Y36.709 E176.83131
G0 F3600 X-70.239 Y36.109
G1 F3000 X-60.418 Y45.93 E177.52423
G0 F3600 X-59.853 Y45.93
G1 F3000 X-70.272 Y35.51 E178.25938
G0 F3600 X-70.306 Y34.911
G1 F3000 X-59.287 Y45.93 E179.03683
G0 F3600 X-58.721 Y45.93
G1 F3000 X-70.34 Y34.311 E179.85662
G0 F3600 X-70.374 Y33.712
G1 F3000 X-58.155 Y45.93 E180.7187
G0 F3600 X-57.59 Y45.93
G1 F3000 X-70.407 Y33.113 E181.62301
G0 F3600 X-70.441 Y32.513
G1 F3000 X-57.024 Y45.93 E182.56965
G0 F3600 X-56.458 Y45.93
G1 F3000 X-70.475 Y31.913 E183.55862
G0 F3600 X-70.509 Y31.314
G1 F3000 X-55.893 Y45.93 E184.58986
G0 F3600 X-55.327 Y45.93
G1 F3000 X-70.542 Y30.715 E185.66336
G0 F3600 X-70.576 Y30.115
G1 F3000 X-54.761 Y45.93 E186.77919
G0 F3600 X-54.196 Y45.93
G1 F3000 X-70.61 Y29.516 E187.93729
G0 F3600 X-70.644 Y28.916
G1 F3000 X-53.63 Y45.93 E189.13772
G0 F3600 X-53.064 Y45.93
G1 F3000 X-70.677 Y28.317 E190.38041
